!!!!SEGMENT: pl-kk--kk-i-481--001-006_zangl-johann-baptist--msza-czteroglosowa-agnus.krn
!!!cenid: 18xx:1434
!!!COM: Zangl, Johann Baptist
!!!COM-rismID: pe30084071
!!!CDT: 1821-1897
!!!CNT: Austrian; Italian
!!!OPR: Msza czterogłosowa
!!!OTL: Agnus
!!!OMV: 006
!!!PDT:
!!!AGN: Sacred; Mass
!!!SMS-siglum: PL-Kk
!!!SMS-shelfmark: Kk.I.481
!!!SMS-shelfwork: 001-006 M
!!!SMS-variant: Tenor I PL-Kk KK.I.481:0001-0003; Tenor II PL-Kk KK.I.481:0009-0011; Bas I PL-Kk KK.I.481:0017-0019; Bas II PL-Kk KK.I.481:0030-0032
!!!SMS-altvar: Tenor I PL-Kk KK.I.481:0005-0007; Tenor II PL-Kk KK.I.481:0013-0015; Bas I PL-Kk KK.I.481:0021-0023; Bas II PL-Kk KK.I.481:0026-0028; Partytura PL-Kk KK.I.481:0033-0036; Partytura PL-Kk KK.I.481:0039-0042
!!!NIFC-rismSourceID: 1001140261
!!!NIFC-rismChildID: 1001140261
!!!NIFC-islandoraID: pl-kk:14352
!!!URL-pdf-islandora: https://repozytorium.nifc.pl/islandora/object/pl-kk%3A14352/datastream/PDF/view
!!!URL-scan: https://polish.musicsources.pl/pl/lokalizacje/galeria/rekopisy/6088 @EN{Scan on Polish Music Sources Website} @PL{Skany w portalu Dziedzictwo Muzyki Polskiej w otwartym dostępie}
!!!IIIF:
!!!ONB-nifc: UWAGA: na podstawie głosów. Proszę uzupełnić pola SMS dot. partytury i głosów. Uwaga: części Mszy: 1. Kyrie, 2. Gloria, 3. Credo, 4. Sanctus, 5. Benedictus, 6. Agnus
!!!AIN: 2 empty 2 tenor
!!!key:
**kern	**text	**kern	**text	**kern	**text	**kern	**text
*part4	*part4	*part3	*part3	*part2	*part2	*part1	*part1
*staff4	*staff4	*staff3	*staff3	*staff2	*staff2	*staff1	*staff1
*Iempty	*	*Iempty	*	*Itenor	*	*Itenor	*
*I"Bas II	*	*I"Bas I	*	*I"Tenor II	*	*I"Tenor I	*
*I'B 2	*	*I'B 1	*	*I'T 2	*	*I'T 1	*
*group1	*	*group1	*	*group1	*	*group1	*
*clefF4	*	*clefF4	*	*clefGv2	*	*clefGv2	*
*k[b-]	*	*k[b-]	*	*k[b-]	*	*k[b-]	*
*B-:	*	*B-:	*	*B-:	*	*B-:	*
*M3/4	*	*M3/4	*	*M3/4	*	*M3/4	*
=1	=1	=1	=1	=1	=1	=1	=1
!	!	!	!	!LO:TX:b:t=Agnus	!	!LO:TX:b:t=Agnus	!
!LO:TX:b:t=Agnus	!	!LO:TX:b:t=Agnus.	!	!LO:TX:a:t=Larghetto	!	!LO:TX:a:t=Larghetto	!
!LO:TX:a:t=Larghetto	!	!LO:TX:a:t=Larghetto	!	!LO:TX:t=P:problem=głos zapisany w kluczu wiolinowym	!	!LO:TX:t=P:problem=głos zapisany w kluczu wiolinowym	!
2FF/	A-	2F\	A-	2A/	A-	(4c\	A-
.	.	.	.	.	.	(8Bn\L	.
.	.	.	.	.	.	8c\J))	.
4AA/	-gnus	4F\	-gnus	4c\	-gnus	8f\L	-gnus
.	.	.	.	.	.	8e\J	.
=2	=2	=2	=2	=2	=2	=2	=2
4BB-X/	De-	4F\	De-	4c\	De-	4e\	De-
4BB-/	-i	4F\	-i	4B-\	-i	4d\	-i
4BB-/	qui	4F\	qui	4B-\	qui	4d\	qui
=3	=3	=3	=3	=3	=3	=3	=3
4C/	tol-	4E\	tol-	4B-\	tol-	4g\	tol-
8C/	-lis	8G\	-lis	8B-\	-lis	8e\	-lis
8C/	pec-	8F\	pec-	8B-\	pec-	8d\	pec-
8C/	-ca-	8E\	-ca-	8B-\	-ca-	8c\	-ca-
8C/	-ta	8G\	-ta	8B-\	-ta	8B-\	-ta
=4	=4	=4	=4	=4	=4	=4	=4
4C#X/	mun-	4G\	mun-	4B-\	mun-	4B-\	mun-
4D\	-di	4F\	-di	4A/	-di	4A/	-di
4r	.	4r	.	4r	.	4r	.
=5	=5	=5	=5	=5	=5	=5	=5
2BB-/	mi-	2F\	mi-	2d\	mi-	2d\	mi-
4AA/	-se-	4A\	-se-	4c#X\	-se-	4e\	-se-
=6	=6	=6	=6	=6	=6	=6	=6
(4D\	-re-	4A\	-re-	2d\	-re-	2f\	-re-
4BBn/)	.	8A-X\L	.	.	.	.	.
.	.	8G\J	.	.	.	.	.
4C/	-re	4F\	-re	4A/	-re	8e\L	-re
.	.	.	.	.	.	8d\J	.
!LO:LB:g=original	!	!LO:LB:g=original	!	!LO:LB:g=original	!	!	!
=7	=7	=7	=7	=7	=7	=7	=7
2.GG/	no-	(4E\	no-	2.G/	no-	(4c\	no-
.	.	4D\	.	.	.	4Bn\	.
.	.	4F\)	.	.	.	4d\)	.
!	!	!	!	!	!	!LO:LB:g=original	!
=8	=8	=8	=8	=8	=8	=8	=8
4C/	-bis	4E\	-bis	4G/	-bis	4c\	-bis
4r	.	4r	.	4r	.	4r	.
4r	.	4r	.	4r	.	8c\	A-
.	.	.	.	.	.	8d\	-gnus
=9	=9	=9	=9	=9	=9	=9	=9
4r	.	4r	.	4r	.	4e\	De-
8C/	A-	8G\	A-	8B-\	A-	4e\	-i
8C/	-gnus	8G\	-gnus	8B-\	-gnus	.	.
8C/	De-	8G\	De-	8B-\	De-	8d\L	qui
8C/	-i	8G\	-i	8B-\	-i	8e\J	.
=10	=10	=10	=10	=10	=10	=10	=10
8r	.	8r	.	8r	.	4f\	tol-
8C/	qui	8A\	qui	8c\	qui	.	.
4C/	tol-	4A\	tol-	4c\	tol-	4f\	-lis
8C/	-lis	8G\	-lis	8B-\	-lis	(8e\L	pec-
8C/	pec-	8F\	pec-	8A/	pec-	8f\J)	.
=11	=11	=11	=11	=11	=11	=11	=11
2BBn/	-ca-	(4D\	-ca-	2G#X/	-ca-	(4f\	-ca-
.	.	4E\)	.	.	.	4e\)	.
4BB/	-ta	4F\	-ta	4G#/	-ta	4d\	-ta
=12	=12	=12	=12	=12	=12	=12	=12
4AA/	mun-	4F\	mun-	4A/	mun-	4d\	mun-
4AA/	-di	4E\	-di	4A/	-di	4c#X\	-di
4r	.	4r	.	4r	.	8A/	mi-
.	.	.	.	.	.	8Bn\	-se-
=13	=13	=13	=13	=13	=13	=13	=13
4r	.	4r	.	4r	.	4c#X\	-re-
8AA/	mi-	8E\	mi-	8Gn/	mi-	4c#\	-re
8AA/	-se-	8E\	-se-	8G/	-se-	.	.
8AA/	-re-	8E\	-re-	8G/	-re-	8Bn\	mi-
8AA/	-re	8E\	-re	8G/	-re	8c#\	-se-
!LO:LB:g=original	!	!LO:LB:g=original	!	!LO:LB:g=original	!	!	!
=14	=14	=14	=14	=14	=14	=14	=14
4r	.	4r	.	4r	.	2d\	-re-
8D\	mi-	8F\	mi-	8A/	mi-	.	.
8D\	-se-	8F\	-se-	8A/	-se-	.	.
8D\	-re-	8F\	-re-	8A/	-re-	4d\	-re
8D\	-re	8F\	-re	8A/	-re	.	.
!	!	!	!	!	!	!LO:LB:g=original	!
=15	=15	=15	=15	=15	=15	=15	=15
2.GG/	no-	(2G\	no-	2.B-\	no-	(4d\	no-
.	.	.	.	.	.	4f\	.
.	.	4F\)	.	.	.	4d\)	.
=16	=16	=16	=16	=16	=16	=16	=16
4AA/	-bis.	4E\	-bis	4A/	-bis.	4c#X\	-bis
4r	.	4r	.	4r	.	4r	.
4r	.	4r	.	4r	.	4r	.
=17	=17	=17	=17	=17	=17	=17	=17
2FF/	A-	2F\	A-	2A/	A-	(4cn\	A-
.	.	.	.	.	.	(8Bn\L	.
.	.	.	.	.	.	8c\J))	.
4AA/	-gnus	4F\	-gnus	4c\	-gnus	8f\L	-gnus
.	.	.	.	.	.	8e\J	.
=18	=18	=18	=18	=18	=18	=18	=18
4BB-X/	De-	4F\	De-	4c\	De-	4e\	De-
4BB-/	-i	4F\	-i	4B-\	-i	4d\	-i
4BB-/	qui	4F\	qui	4B-\	qui	4d\	qui
=19	=19	=19	=19	=19	=19	=19	=19
4C/	tol-	4E\	tol-	4B-\	tol-	4g\	tol-
8C/	-lis	8G\	-lis	8B-\	-lis	8e\	-lis
8C/	pec-	8F\	pec-	8B-\	pec-	8d\	pec-
8C/	-ca-	8E\	-ca-	8B-\	-ca-	8c\	-ca-
8C/	-ta	8G\	-ta	8B-\	-ta	8B-\	-ta
=20	=20	=20	=20	=20	=20	=20	=20
4C#X/	mun-	4G\	mun-	4B-\	mun-	4B-\	mun-
4D\	-di	4F\	-di	4A/	-di	4A/	-di
4r	.	4r	.	4r	.	4r	.
=21	=21	=21	=21	=21	=21	=21	=21
2BB-/	Do-	2F\	Do-	2d\	Do-	2d\	Do-
4AA/	-na	4A\	-na	4c#X\	-na	4e\	-na
!LO:LB:g=original	!	!LO:LB:g=original	!	!LO:LB:g=original	!	!	!
=22	=22	=22	=22	=22	=22	=22	=22
(8D\L	no-	4.A\	no-	2d\	no-	2f\	no-
8C\J)	.	.	.	.	.	.	.
4BBn/	.	.	.	.	.	.	.
.	.	8G\	.	.	.	.	.
4C/	-bis	4F\	-bis	4A/	-bis	8e\L	-bis
.	.	.	.	.	.	8d\J	.
!	!	!	!	!	!	!LO:LB:g=original	!
=23	=23	=23	=23	=23	=23	=23	=23
2.GG/	pa-	(4E\	pa-	2.G/	pa-	(4c\	pa-
.	.	4D\	.	.	.	4Bn\	.
.	.	4C/)	.	.	.	4A/)	.
=24	=24	=24	=24	=24	=24	=24	=24
!	!	!	!	!	!	!LO:SIC:s:v=bn	!
2GG;/	-cem	2.D;\	-cem.	2G;/	cem	2B-;\	-cem.
4ryy	.	.	.	4ryy	.	4ryy	.
=25||	=25||	=25||	=25||	=25||	=25||	=25||	=25||
*k[]	*	*k[]	*	*k[]	*	*k[]	*
*M2/2	*	*M2/2	*	*M2/2	*	*M2/2	*
*met(c|)	*	*met(c|)	*	*met(c|)	*	*met(c|)	*
!LO:TX:a:t=Allegro	!	!	!	!LO:TX:a:t=Allegro	!	!LO:TX:a:t=Allegro	!
2C/	do-	2En\	Do-	2G/	do-	2G/	Do-
2C/	-na	2E\	-na	2G/	-na	2c\	-na
=26	=26	=26	=26	=26	=26	=26	=26
2F\	no-	2F\	no-	2A/	no-	2A/	no-
2F\	-bis	2F\	-bis	2A/	-bis	2d\	-bis
=27	=27	=27	=27	=27	=27	=27	=27
1G	pa-	1G	pa-	(2B\	pa-	(2d\	pa-
.	.	.	.	4c\	.	4e\	.
.	.	.	.	4d\)	.	4f\)	.
=28	=28	=28	=28	=28	=28	=28	=28
2C/	-cem	2G\	-cem	2c\	-cem	2e\	-cem,
4r	.	2r	.	2r	.	2r	.
4r	.	.	.	.	.	.	.
=29	=29	=29	=29	=29	=29	=29	=29
2G\	do-	2G\	do-	2B\	do-	2d\	do-
2E\	-na	2G\	-na	2c\	-na	2c\	-na
=30	=30	=30	=30	=30	=30	=30	=30
2BB/	no-	2G\	no-	2d\	no-	2f\	no-
2C/	-bis	2G\	-bis	2c\	-bis	2e\	-bis
=31	=31	=31	=31	=31	=31	=31	=31
(2FF/	pa-	(2F\	pa-	[2A/	pa-	(2d\	pa-
2FF#X/)	.	2D\)	.	2A/]	.	2c\)	.
!LO:LB:g=original	!	!LO:LB:g=original	!	!LO:LB:g=original	!	!	!
=32	=32	=32	=32	=32	=32	=32	=32
1GG;	-cem	1D;	-cem,	1G;	-cem	1B;	-cem.
!	!	!	!	!	!	!LO:LB:g=original	!
=33	=33	=33	=33	=33	=33	=33	=33
2C/	do-	2E\	do-	2G/	do-	2G/	do-
2C/	-na	2E\	-na	2G/	-na	2c\	-na
=34	=34	=34	=34	=34	=34	=34	=34
2F\	no-	2F\	no-	2A/	no-	2A/	no-
2F\	-bis	2F\	-bis	2A/	-bis	2d\	-bis
=35	=35	=35	=35	=35	=35	=35	=35
1G	pa-	1G	pa-	(2B\	pa-	(2d\	pa-
.	.	.	.	4c\	.	4e\	.
.	.	.	.	4d\)	.	4f\)	.
=36	=36	=36	=36	=36	=36	=36	=36
2C/	-cem	2G\	-cem	2c\	-cem	2e\	-cem,
2r	.	2r	.	2r	.	2r	.
=37	=37	=37	=37	=37	=37	=37	=37
2C#X/	do-	1A	do-	2e\	do-	(2g\	do-
2D\	.	.	.	2d\	-na	2f\)	.
=38	=38	=38	=38	=38	=38	=38	=38
(2BB/	-na	1G	-na	2d\	no-	(2f\	-na
2Cn/)	.	.	.	2c\	-bis	2e\)	.
=39	=39	=39	=39	=39	=39	=39	=39
(2FF/	pa-	1F	pa-	(2A/	pa-	(1d	pa-
2GG/)	.	.	.	2B\)	.	.	.
=40	=40	=40	=40	=40	=40	=40	=40
!	!	!	!	!LO:TX:a:t=P:problem=brak ligatury (dopisana innym tuszem)	!	!	!
1C	-cem.	[1E	-cem.	1c	-cem.	[1c)	.
=41	=41	=41	=41	=41	=41	=41	=41
2C/	.	2E\]	.	2c\	.	2c\]	-cem.
2r	.	2r	.	2r	.	2r	.
==	==	==	==	==	==	==	==
*-	*-	*-	*-	*-	*-	*-	*-
!!!system-decoration: [(g1)]
!!!ENC: Anna Matuszewska
!!!END: 2021-01-31
!!!ENC: Marcin Jachim
!!!END: 2021-01-23
!!!YEC: Copyright 2022 Narodowy Instytut Fryderyka Chopina (https://polishscores.org)
!!!YEM: License CC-BY-4.0 (https://creativecommons.org/licenses/by/4.0)
